assets/images/email.svg

<svg width="44" height="42" viewBox="0 0 44 42" fill="none" xmlns="http://www.w3.org/2000/svg">
<rect width="44" height="42" fill="#9C9D9F"/>
<path fill-rule="evenodd" clip-rule="evenodd" d="M26.3576 22.2354L31.5409 28.6798C31.2561 28.7971 30.9509 28.8575 30.6429 28.8574H13.3571C13.046 28.8574 12.7411 28.7961 12.4591 28.6798L17.6424 22.2354C18.3644 22.954 19.3416 23.3574 20.3602 23.3574H23.6398C24.6584 23.3572 25.6355 22.9538 26.3576 22.2354ZM11.2876 14.3719L16.6194 21.0002L11.2876 27.6285C11.0989 27.2823 11.0001 26.8944 11 26.5002V15.5002C11 15.1026 11.1006 14.7153 11.2876 14.3719ZM32.7124 14.3719C32.8994 14.7153 33 15.1026 33 15.5002V26.5002C33 26.8978 32.8994 27.2851 32.7124 27.6285L27.3806 21.0002L32.7124 14.3719ZM12.4591 13.3206C12.7439 13.2033 13.0491 13.143 13.3571 13.1431H30.6429C30.954 13.1431 31.2589 13.2044 31.5409 13.3206L25.4163 20.935C25.2027 21.2007 24.9322 21.4151 24.6247 21.5623C24.3173 21.7096 23.9807 21.786 23.6398 21.7859H20.3602C20.0193 21.786 19.6827 21.7096 19.3753 21.5623C19.0678 21.4151 18.7973 21.2007 18.5837 20.935L12.4591 13.3206Z" fill="black"/>
</svg>

<svg width="44" height="42" fill="none" xmlns="http://www.w3.org/2000/svg"><path fill="#9C9D9F" d="M0 0h44v42H0z"/><path fill-rule="evenodd" clip-rule="evenodd" d="m26.358 22.235 5.183 6.445c-.285.117-.59.178-.898.177H13.357c-.311 0-.616-.06-.898-.177l5.183-6.445a3.853 3.853 0 0 0 2.718 1.122h3.28a3.855 3.855 0 0 0 2.718-1.122Zm-15.07-7.863L16.619 21l-5.331 6.628A2.359 2.359 0 0 1 11 26.5v-11c0-.397.1-.785.288-1.128Zm21.424 0c.187.343.288.73.288 1.128v11c0 .398-.1.785-.288 1.128L27.381 21l5.331-6.628ZM12.46 13.32c.285-.118.59-.178.898-.178h17.286c.311 0 .616.061.898.178l-6.125 7.614a2.277 2.277 0 0 1-1.776.85h-3.28a2.278 2.278 0 0 1-1.776-.85l-6.125-7.614Z" fill="#000"/></svg>
